X:1
T:Bezeichnung standardisiert: Mars van Brandenburg;
T:Bezeichnung standardisiert: Mars van Brandenburg;
T:18 [Dantz in C nach Johann Friedrich Drey\sser, 1720] In anderer Quelle: Brandenburger Mars - Hollantsche Schouwburg 1730 (Anm. S. Wascher);
T:Urheber unbekannt Erstbeleg: 1730 (Datum in der schriftlichen Quelle)
C:Urheber unbekannt
C:Erstbeleg: 1730 (Datum in der schriftlichen Quelle)
%%score 1 2
L:1/8
M:2/2
K:C
V:1 treble 
V:2 bass 
V:1
 e2 | cBcd c2 e2 | cBcd c2 e2 | f4 e4 | dcde d2 e2 | f4 e4 | dcde d2 g2 | g4 ^f4 | g6 g2 | g4 ^f4 | %10
 g6 g2 | aga_b a2 g2 | a4 f2 g2 | aga_b a2 g2 | a4 f2 g2 | g2 f2 e2 f2 | g4 agfe | d4 agfe | %18
 d4 e2 e2 | e4 d2 d2 | d4 c2 c2 | c4 BcdB | c4 c2 c2 | c4 BcdB | c6 :| %25
V:2
 !fermata!C,2 | C,4 C,2 C,2 | C,4 C,2 C,2 | F,4 C,4 | G,4 G,,2 C,2 | F,4 C,4 | G,4 G,2 B,,2 | %7
 C,D,E,C, D,4 | G,,4 G,,2 B,,2 | C,D,E,C, D,4 | G,,4 G,,2 C,2 | F,4 F,2 C,2 | G,,4 G,,2 C,2 | %13
 F,4 F,2 C,2 | F,4 F,,4 | C,2 B,,2 C,2 F,2 | C,4 G,,4 | G,,4 F,,4 | G,,4 C,2 C,2 | A,,2 C,2 G,,4 | %20
 G,4 E,2 E,2 | F,G,A,F, G,2 G,,2 | C,4 E,2 E,2 | F,G,A,F, G,2 G,,2 | C,6 :| %25

